X:1
T:Amazing Love, LMD
T:Amazing Love, LMD
T:Scott Werdebaugh, 2008
T:Charles Wesley, 1738
T:Music © 2008 Scott Werdebaugh &amp; New Heart Music - May be freely copied and used for Christian worship or devotions with no alterations. All other rights reserved.
T:Music © 2008 Scott Werdebaugh &amp; New Heart Music - May be freely copied and used for Christian worship or devotions with no alterations. All other rights reserved.
T:Music © 2008 Scott Werdebaugh &amp; New Heart Music - May be freely copied and used for Christian worship or devotions with no alterations. All other rights reserved.
C:Scott Werdebaugh, 2008
Z:Music © 2008 Scott Werdebaugh & New Heart Music - May be freely copied and used for
Z:Christian worship or devotions with no alterations. All other rights reserved.
%%score ( 1 2 ) ( 3 4 ) ( 5 6 ) ( 7 8 )
L:1/8
Q:1/4=102
M:4/4
K:Eb
V:1 treble 
V:2 treble 
V:3 bass 
V:4 bass 
V:5 treble 
V:6 treble 
V:7 bass 
V:8 bass 
V:1
"^Meditative" [GB]2 [FB][DA] [EG]2 [GB]2 | [FA]2 (AG) [DF]2 [DF]2 | [EG]2 (GA) [GB]2 [GB]2 | %3
w: 1.~And can it be that|I should * gain An|in- t’rest * in the|
w: 2.~’Tis mys- tery all! Th’Im-|mor- tal * dies! Who|can ex- * plore His|
w: 3.~He left His Fa- ther’s|throne a- * bove, So|free, so * in- fi-|
w: 4.~Long my im- pris- oned|spir- it * lay Fast|bound in * sin and|
w: 5.~Still the small in- ward|voice I * hear, That|whis- pers * all my|
w: 6.~No con- dem- na- tion|now I * dread: ~-|~Je- sus,/and * all in|
 [FA]3 [EG] [DF]3 z | [EG]2 [EG][FA] [GB]2 E2 | [Ac]2 ([GB][FA]) [GB]3 [EG] | %6
w: Sav- ior’s blood?|Died He for me, who|caused His * pain? For|
w: strange de- sign?|In vain the first- born|ser- aph * tries To|
w: nite His grace!|Emp- tied Him- self of|all but * love, And|
w: na- ture’s night.|Thine eye dif- fused a|quick- ’ning * ray: I|
w: sins for- given;|Still the a- ton- ing|blood is * near, That|
w: Him, is mine!|A- live in Him, my|liv- ing * Head, And|
 [FA]2 ([EG][DF]) [EG]2 [EG]2 | [DF]2 ([CE][B,D]) [B,E]3 z | [Ac]2 [GB][FA] [GB]3 [EG] | %9
w: me, who * Him to|death pur- * sued?|A- maz- ing love! How|
w: sound the * depths of|love di- * vine!|’Tis mer- cy all! Let|
w: bled for * Ad- am’s|help- less * race!|’Tis mer- cy all, im-|
w: woke- * * the dun-|geon flamed * with|light! My chains fell off,|
w: quenched the * wrath of|hos- tile * Heaven.|I feel the life His|
w: clothed in * right- eous-|ness di- * vine,|Bold I ap- proach th’e-|
 [FA]3 [DA] [EG]3 [GB] | [Ac]2 [Fc]2 [GB]2 ([FA][DF]) | [EG]2 [DF]2 [EG]3 z | %12
w: can it be That|Thou, my God shouldst *|die for me?|
w: earth a- dore; Let|an- gel minds in- *|quire no more.|
w: mense and free, for,|O my God, it *|found out me.|
w: my heart was free,|I rose, went forth, *|and fol- lowed|
w: wounds im- part; I|feel the Sav- ior *|in my heart.|
w: ter- nal throne, And|claim the crown, through *|Christ my own.|
 [Fc]2 [Gc][Ac] [GB]3 [GB] | [FA]2 ([GB][FA]) [EG]3 [GB] | [Ac]2 ([Bd][Ac]) [GB]2 [EG]2 | %15
w: A- maz- ing love! How|can it * be That|Thou, my * God, shouldst|
w: A- maz- ing love! How|can it * be That|Thou, my * God, shouldst|
w: A- maz- ing love! How|can it * be That|Thou, my * God, shouldst|
w: Thee. A- maz- ing love!|How can * it be|That Thou, * my God,|
w: I feel the life His|wounds im- * part; I|feel the * Sav- ior|
w: A- maz- ing love! How|can it * be That|Thou, my * God, shouldst|
 [DA]2 (GF) E4"^Play 6 times" :| %16
w: die for * me!|
w: die for * me!|
w: die for * me!|
w: shouldst die * for|
w: in my * heart.|
w: die for * me!|
V:2
 x8 | x2 E2 x4 | x2 E2 x4 | x8 | x6 E2 | x8 | x8 | x8 | x8 | x8 | x8 | x8 | x8 | x8 | x8 | %15
 x2 D2 E4 :| %16
V:3
 [E,G,]2 [D,B,][F,A,] [E,B,]2 [E,G,]2 | [C,A,]2 ([B,,A,][E,G,]) [B,,B,]2 [B,,B,]2 | %2
 [E,B,]2 (B,A,) [E,G,]2 [E,G,]2 | [C,A,]3 [E,B,] [B,,B,]3 z | %4
 [E,B,]2 [E,B,][C,A,] [E,G,]2 [G,B,]2 | [F,A,]2 ([E,G,][D,A,]) [E,G,]3 [E,B,] | %6
 [A,C]2 B,2 [E,B,]2 [E,B,]2 | [B,,B,]2 ([A,,A,][B,,F,]) [E,G,]3 z | %8
 [D,F,]2 [E,G,][E,C] [E,B,]3 [E,B,] | [C,A,]3 [F,A,] [E,B,]3 [E,G,] | [E,A,]2 [F,A,]2 [E,G,]2 B,2 | %11
 [E,G,]2 [F,A,]2 [E,G,]3 z | [F,A,]2 [E,G,][F,A,] [E,G,]3 [E,B,] | [A,C]2 [D,B,]2 [E,B,]3 [E,G,] | %14
 [E,A,]2 ([D,B,][D,A,]) [E,G,]2 [E,B,]2 | [B,,A,]2 [B,,B,]2 [E,G,]4"^Play 6 times" :| %16
V:4
 x8 | x8 | x2 E,2 x4 | x8 | x8 | x8 | x2 (E,D,) x4 | x8 | x8 | x8 | x6 (D,B,,) | x8 | x8 | x8 | %14
 x8 | x8 :| %16
V:5
 [GB]2 BA [EG]2 [GB]2 | [FA]2 (AG) [DF]2 [DF]2 | [EG]2 (GA) [GB]2 [GB]2 | [FA]3 [EG] [DF]4 | %4
 [EG]2 GA [GB]2 E2 | [Ac]2 ([GB][FA]) [GB]3 [EG] | [FA]2 ([EG][DF]) [EG]2 [EG]2 | %7
 [DF]2 ([CE][B,D]) [B,E]4 | [Ac]2 [GB][FA] [GB]3 [EG] | [FA]3 [DA] [EG]3 [GB] | %10
 [Ac]2 [Ac]2 [GB]2 ([FA][DF]) | [EG]2 [DF]2 [EG]4 | [Fc]2 [Gc][Ac] [GB]3 [GB] | %13
 [FA]2 ([GB][FA]) [EG]3 [GB] | [Ac]2 ([Bd][Ac]) [GB]2 [EG]2 | [FA]2 (GF) E4"^Play 6 times" :| %16
V:6
 x2 F2 x4 | x2 E2 x4 | x2 E2 x4 | x8 | x2 E2 x E2 x | x8 | x8 | x8 | x8 | x8 | x8 | x8 | x8 | x8 | %14
 x8 | x2 D2 E4 :| %16
V:7
 [E,G,]2 [D,B,][F,C] B,2 G,2 | [C,A,]2 ([B,,A,][E,G,]) [B,,B,]4 | [E,B,]2 (B,A,) G,2 G,2 | %3
 [C,A,]3 [E,B,] [B,,B,]4 | [E,B,]2 [E,B,][C,A,] [E,G,]2 [G,B,]2 | %5
 [F,A,]2 ([E,G,][D,A,]) [E,G,]3 [E,B,] | [A,C]2 B,2 [E,B,]4 | [B,,B,]2 ([A,,A,][B,,F,]) [E,G,]4 | %8
 [F,A,]2 [E,G,][D,F,] G,3 B, | [C,A,]3 [F,A,] [E,B,]3 [E,G,] | [E,A,]2 [F,A,]2 [E,G,]2 B,2 | %11
 [E,G,]2 [F,A,]2 [E,G,]4 | [F,A,]2 [E,G,][F,A,] [E,G,]4 | [A,C]2 [D,B,]2 [E,B,]3 [E,G,] | %14
 [E,A,]2 ([D,B,][D,A,]) G,2 B,2 | [E,A,]2 [B,,B,]2 [E,G,]4"^Play 6 times" :| %16
V:8
 x4 E,4 | x8 | x2 E,2 E,4 | x8 | x8 | x8 | x2 (E,D,) x4 | x8 | x4 E,4 | x8 | x6 (D,B,,) | x8 | x8 | %13
 x8 | x4 E,4 | x8 :| %16

